packages/katcn/src/icons/svg/musicNote.svg

<svg width="24" height="25" viewBox="0 0 24 25" fill="none" xmlns="http://www.w3.org/2000/svg">
<path fill-rule="evenodd" clip-rule="evenodd" d="M19.2272 3.27045C19.4463 3.16695 19.6169 3.20486 19.7429 3.29218C19.8838 3.38989 20 3.57555 20 3.82177V12.7431C19.4117 12.4028 18.7286 12.208 18 12.208C15.7909 12.208 14 13.9989 14 16.208C14 18.4171 15.7909 20.208 18 20.208C19.9395 20.208 21.5566 18.8277 21.9224 16.9958C21.9724 16.8768 22 16.7461 22 16.609V16.208V3.82177C22 2.06491 20.2599 0.611841 18.4229 1.43905L10.2686 4.33372C8.9257 4.8013 8 6.25077 8 7.66833V11.1859C7.99968 11.2005 7.99967 11.2152 8 11.2299V15.7431C7.41165 15.4028 6.72857 15.208 6 15.208C3.79086 15.208 2 16.9989 2 19.208C2 21.4171 3.79086 23.208 6 23.208C8.20806 23.208 9.99825 21.4189 9.99999 19.2112L10 19.208V11.9288L18.3163 9.15669C18.8402 8.98204 19.1234 8.41572 18.9487 7.89178C18.7741 7.36783 18.2077 7.08467 17.6838 7.25932L10 9.82059V7.66833C10 7.00806 10.4725 6.37979 10.9274 6.22213L19.1345 3.3087C19.1661 3.29751 19.197 3.28475 19.2272 3.27045ZM18 14.208C19.1046 14.208 20 15.1034 20 16.208C20 17.3126 19.1046 18.208 18 18.208C16.8954 18.208 16 17.3126 16 16.208C16 15.1034 16.8954 14.208 18 14.208ZM8 19.208C8 18.1034 7.10457 17.208 6 17.208C4.89543 17.208 4 18.1034 4 19.208C4 20.3126 4.89543 21.208 6 21.208C7.10457 21.208 8 20.3126 8 19.208Z" fill="black"/>
</svg>

<svg xmlns="http://www.w3.org/2000/svg" fill="none" viewBox="0 0 24 25"><path fill="#000" fill-rule="evenodd" d="M19.227 3.27c.22-.103.39-.065.516.022.14.098.257.284.257.53v8.921a4 4 0 1 0 1.922 4.253 1 1 0 0 0 .078-.387V3.822c0-1.757-1.74-3.21-3.577-2.383l-8.154 2.895C8.926 4.8 8 6.25 8 7.668v8.075a4 4 0 1 0 2 3.468v-7.283l8.316-2.771a1 1 0 1 0-.632-1.898L10 9.821V7.668c0-.66.473-1.288.927-1.446l8.208-2.913a1 1 0 0 0 .092-.039M18 14.208a2 2 0 1 1 0 4 2 2 0 0 1 0-4m-10 5a2 2 0 1 0-4 0 2 2 0 0 0 4 0" clip-rule="evenodd"/></svg>
